packages/foundations/assets/icons/functional/images/maps/parking_16_filled.svg

<svg width="16" height="16" viewBox="0 0 16 16" fill="none" xmlns="http://www.w3.org/2000/svg">
<g clip-path="url(#clip0_2213_5309)">
<path fill-rule="evenodd" clip-rule="evenodd" d="M12.8 1.59998C13.6836 1.59998 14.4 2.31632 14.4 3.19998V12.8C14.4 13.6836 13.6836 14.4 12.8 14.4H3.19998C2.31632 14.4 1.59998 13.6836 1.59998 12.8V3.19998C1.59998 2.31632 2.31632 1.59998 3.19998 1.59998H12.8ZM7.3059 10.4479L7.30585 8.75231C7.63527 8.79445 7.94622 8.81551 8.23872 8.81551C9.01312 8.81551 9.60272 8.64245 10.0075 8.29631C10.4123 7.95018 10.6147 7.44565 10.6147 6.78271C10.6147 6.14325 10.4196 5.65338 10.0295 5.31311C9.63938 4.97285 9.07765 4.80271 8.34432 4.80271H6.40112C6.06975 4.80271 5.80112 5.07134 5.80112 5.40271V10.4479C5.80112 10.8635 6.13798 11.2003 6.55352 11.2003C6.96904 11.2003 7.3059 10.8634 7.3059 10.4479C7.3059 10.4479 7.3059 10.4479 7.3059 10.4479ZM8.10672 7.84316C7.94245 7.84316 7.39241 7.80965 7.30585 7.79276C7.30585 7.22314 7.30585 6.60927 7.30585 5.95116H8.21232C8.54755 5.95116 8.78661 6.02156 8.92952 6.16236C9.07325 6.30316 9.14512 6.53782 9.14512 6.86636C9.14512 7.21249 9.06445 7.46182 8.90312 7.61436C8.74178 7.76689 8.47632 7.84316 8.10672 7.84316Z" fill="#1A1C1F"/>
</g>
<defs>
<clipPath id="clip0_2213_5309">
<rect width="16" height="16" fill="white"/>
</clipPath>
</defs>
</svg>

<svg xmlns="http://www.w3.org/2000/svg" width="16" height="16" fill="none"><g clip-path="url(#a)"><path fill="#1A1C1F" fill-rule="evenodd" d="M12.8 1.6a1.6 1.6 0 0 1 1.6 1.6v9.6a1.6 1.6 0 0 1-1.6 1.6H3.2a1.6 1.6 0 0 1-1.6-1.6V3.2a1.6 1.6 0 0 1 1.6-1.6zm-5.494 8.848V8.752q.494.063.933.064 1.162 0 1.768-.52.608-.519.608-1.513 0-.96-.585-1.47t-1.686-.51H6.401a.6.6 0 0 0-.6.6v5.045a.752.752 0 1 0 1.505 0m.8-2.605c-.164 0-.714-.033-.8-.05V5.95h.906q.504 0 .718.211.215.212.215.704 0 .52-.242.748-.242.23-.796.23" clip-rule="evenodd"/></g><defs><clipPath id="a"><path fill="#fff" d="M0 0h16v16H0z"/></clipPath></defs></svg>
